!!!COM: Palestrina, Giovanni Perluigi da
!!!OPR: Missa Fratres Ego Enim Accepi
!!!OTL: Agnus
**kern	**kern	**kern	**kern	**kern	**kern	**kern	**kern
*Ibass	*Itenor	*Icalto	*Icant	*Ibass	*Itenor	*Icalto	*Icant
!Bassus	!Tenor	!Altus	!Cantus	!Bassus	!Tenor	!Altus	!Cantus
*clefF4	*clefGv2	*clefG2	*clefG2	*clefF4	*clefGv2	*clefG2	*clefG2
*k[b-]	*k[b-]	*k[b-]	*k[b-]	*k[b-]	*k[b-]	*k[b-]	*k[b-]
*G:dor	*G:dor	*G:dor	*G:dor	*G:dor	*G:dor	*G:dor	*G:dor
*M4/2	*M4/2	*M4/2	*M4/2	*M4/2	*M4/2	*M4/2	*M4/2
=1	=1	=1	=1	=1	=1	=1	=1
0r	0r	0r	0r	0r	0r	0g	0r
=2	=2	=2	=2	=2	=2	=2	=2
0r	0r	0r	0r	0r	0r	1d	0dd
.	.	.	.	.	.	2.g	.
.	.	.	.	.	.	4a	.
=3	=3	=3	=3	=3	=3	=3	=3
0r	0r	0r	0r	0r	1r	4b-	1g
.	.	.	.	.	.	4cc	.
.	.	.	.	.	.	1b-	.
.	.	.	.	.	[1d	.	2.dd
.	.	.	.	.	.	4a	.
.	.	.	.	.	.	4g	4ee
=4	=4	=4	=4	=4	=4	=4	=4
0r	0r	0r	0r	0r	1d]	2a	4ff
.	.	.	.	.	.	.	4ee
.	.	.	.	.	.	2f	4dd
.	.	.	.	.	.	.	4cc
.	.	.	.	.	1G	1g	1b-
=5	=5	=5	=5	=5	=5	=5	=5
0r	0r	0r	0r	0r	2.d	2f	2a
.	.	.	.	.	.	2b-	2dd
.	.	.	.	.	4e	.	.
.	.	.	.	.	4f	4a	2cc
.	.	.	.	.	4e	4g	.
.	.	.	.	.	4d	4f	[2ff
.	.	.	.	.	4c	4e	.
=6	=6	=6	=6	=6	=6	=6	=6
0r	0r	0r	0r	0r	1B-	1d	4ff]
.	.	.	.	.	.	.	4ee
.	.	.	.	.	.	.	1dd
.	.	.	.	.	1A	2.e	.
.	.	.	.	.	.	.	2cc
.	.	.	.	.	.	4f	.
=7	=7	=7	=7	=7	=7	=7	=7
0r	0r	0r	0r	0G	[0d	4g	2b-
.	.	.	.	.	.	4a	.
.	.	.	.	.	.	2.b-	2g
.	.	.	.	.	.	.	1b-
.	.	.	.	.	.	4a	.
.	.	.	.	.	.	[2g	.
=8	=8	=8	=8	=8	=8	=8	=8
0r	0r	0r	0r	1D	1d]	2g]	1a
.	.	.	.	.	.	2f#	.
.	.	.	.	2.G	2r	2g	2.b-
.	.	.	.	.	[2G	[2b-	.
.	.	.	.	4A	.	.	4cc
=9	=9	=9	=9	=9	=9	=9	=9
0G	0r	0r	0r	4B-	4G]	2b-]	[0dd
.	.	.	.	4c	4A	.	.
.	.	.	.	1B-	4B-	2b-	.
.	.	.	.	.	4c	.	.
.	.	.	.	.	2d	1b-	.
.	.	.	.	4A	[2g	.	.
.	.	.	.	4G	.	.	.
=10	=10	=10	=10	=10	=10	=10	=10
1D	0d	0r	0r	1d	2g]	1a	0dd]
.	.	.	.	.	2f#	.	.
2.G	.	.	.	2G	2g	2.b-	.
.	.	.	.	[2B-	[2G	.	.
4A	.	.	.	.	.	4a	.
=11	=11	=11	=11	=11	=11	=11	=11
4B-	1G	0r	0r	4B-]	4G]	1g	2r
4c	.	.	.	4A	4A	.	.
1B-	.	.	.	4G	4B-	.	1gg
.	.	.	.	4F	4c	.	.
.	2.d	.	.	1G	2.B-	1b-	.
4A	.	.	.	.	.	.	2gg
4G	4e	.	.	.	4c	.	.
=12	=12	=12	=12	=12	=12	=12	=12
2A	4f	1r	0r	1D	2d	2a	2.ff
.	4g	.	.	.	.	.	.
2B-	2f	.	.	.	2d	2d	.
.	.	.	.	.	.	.	4dd
2c	2e	[1g	.	2C	1G	1g	4ee
.	.	.	.	.	.	.	4ff
2B	2d	.	.	2G	.	.	[2gg
=13	=13	=13	=13	=13	=13	=13	=13
2c	2e	1g]	1r	1C	0G	2.e	4gg]
.	.	.	.	.	.	.	4ff
2C	1c	.	.	.	.	.	2ee
.	.	.	.	.	.	4f	.
[1G	.	1d	[1dd	1r	.	1g	1dd
.	4B-	.	.	.	.	.	.
.	4A	.	.	.	.	.	.
=14	=14	=14	=14	=14	=14	=14	=14
1G]	2.B-	2.g	1dd]	0r	0r	0r	0r
.	4c	4a	.	.	.	.	.
[1G	1d	4b-	1g	.	.	.	.
.	.	4cc	.	.	.	.	.
.	.	[2b-	.	.	.	.	.
=15	=15	=15	=15	=15	=15	=15	=15
2G]	2G	2b-]	2.dd	0r	0r	0r	0r
4F	2.d	4a	.	.	.	.	.
4E	.	4g	4ee	.	.	.	.
2D	.	2.a	4ff	.	.	.	.
.	4c	.	4gg	.	.	.	.
[2d	4d	.	[2ff	.	.	.	.
.	4e	4g	.	.	.	.	.
=16	=16	=16	=16	=16	=16	=16	=16
2d]	4f	4a	2ff]	0r	0r	0r	0r
.	4g	4b-	.	.	.	.	.
4c	2.a	2.cc	4ee	.	.	.	.
4B-	.	.	4dd	.	.	.	.
1A	.	.	2ee	.	.	.	.
.	4g	4b-	.	.	.	.	.
.	4f	4a	[2ff	.	.	.	.
.	4e	4g	.	.	.	.	.
=17	=17	=17	=17	=17	=17	=17	=17
1B-	2d	2f	4ff]	0r	0r	0r	0r
.	.	.	4ee	.	.	.	.
.	2d	2g	1dd	.	.	.	.
1A	1e	1a	.	.	.	.	.
.	.	.	2cc#	.	.	.	.
=18	=18	=18	=18	=18	=18	=18	=18
1D	1d	1a	1dd	2r	2r	2r	2r
.	.	.	.	2D	2d	2f#	2a
2r	2r	2r	2r	1G	1d	1g	1b-
2G	2d	2g	2dd	.	.	.	.
=19	=19	=19	=19	=19	=19	=19	=19
1d	1f	1a	1dd	1D	1d	4f	1a
.	.	.	.	.	.	4d	.
.	.	.	.	.	.	4f	.
.	.	.	.	.	.	4g	.
1A	1e	1a	1cc#	2r	2r	2a	2r
.	.	.	.	2A	2e	2a	2cc#
=20	=20	=20	=20	=20	=20	=20	=20
2r	1r	2r	2r	2d	2f	2a	2dd
2A	.	2a	2ee	2c#	2a	2a	2ee
2d	2r	[1a	2dd	2d	1a	2f	2ff
2c#	2A	.	2ee	2A	.	2a	2ee
=21	=21	=21	=21	=21	=21	=21	=21
2.d	2a	2a]	1ff	2r	2f	2r	2r
.	2f	2a	.	2D	2d	2a	2dd
4c	.	.	.	.	.	.	.
4B-	1g	2b-	[1dd	[1G	4d	2g	2.dd
4A	.	.	.	.	4c	.	.
[2G	.	[2B-	.	.	4B-	2d	.
.	.	.	.	.	4A	.	4cc
=22	=22	=22	=22	=22	=22	=22	=22
2G]	1d	4B-]	0dd]	2G]	2G	0d	2b-
.	.	4c	.	.	.	.	.
2D	.	2.d	.	2F#	2A	.	2a
2r	2r	.	.	1G	1B	.	1g
.	.	4G	.	.	.	.	.
2G	2d	[2g	.	.	.	.	.
=23	=23	=23	=23	=23	=23	=23	=23
1.c	1.e	2g]	2r	1C	1c	1c	1g
.	.	2g	2cc	.	.	.	.
.	.	2g	2cc	1r	1r	1r	1r
2B	2d	2g	2dd	.	.	.	.
=24	=24	=24	=24	=24	=24	=24	=24
1c	1e	1g	1cc	1C	2r	2r	2r
.	.	.	.	.	2c	2g	2cc
2F	2f	2a	2cc	1F	1c	1f	1a
2F	2f	2cc	2ff	.	.	.	.
=25	=25	=25	=25	=25	=25	=25	=25
1B-	1f	1b-	1dd	1BB-	1d	1f	1b-
1F	[1f	1a	1cc	2r	2r	2r	2r
.	.	.	.	2F	2c	2a	2cc
=26	=26	=26	=26	=26	=26	=26	=26
2r	1f]	2r	2r	2B-	2B-	2f	2dd
2F	.	2a	2cc	2A	2F	2f	2cc
2B-	2r	2f	2dd	2B-	2f	2d	2b-
2A	2F	2f	2cc	2F	2f	2a	2cc
=27	=27	=27	=27	=27	=27	=27	=27
2B-	2B-	2d	2b-	2r	2r	2r	2r
2F	2A	2a	2cc	2F	2c	2a	2cc
2r	2B-	2r	2r	2B-	2B-	2f	2dd
2F	2c	2a	2cc	2A	2F	2f	[2cc
=28	=28	=28	=28	=28	=28	=28	=28
2BB-	4r	2f	2dd	1B-	0f	2.d	4cc]
.	4f	.	.	.	.	.	4b-
2BB-	4d	2f	2dd	.	.	.	1b-
.	4B-	.	.	.	.	4e	.
1F	1c	[1f	1cc	1F	.	4f	.
.	.	.	.	.	.	4g	.
.	.	.	.	.	.	2a	2a
=29	=29	=29	=29	=29	=29	=29	=29
0BB-	0B-	2f]	0dd	0B-	1d	2f	0b-
.	.	2d	.	.	.	2.f	.
.	.	1d	.	.	2r	.	.
.	.	.	.	.	.	4e	.
.	.	.	.	.	[2f	4d	.
.	.	.	.	.	.	4c	.
=30	=30	=30	=30	=30	=30	=30	=30
0r	0r	0r	0r	0r	4f]	2B-	2.ff
.	.	.	.	.	4e	.	.
.	.	.	.	.	4d	2f	.
.	.	.	.	.	4c	.	4ee
.	.	.	.	.	2B-	2b-	2dd
.	.	.	.	.	2f	[2a	2cc
=31	=31	=31	=31	=31	=31	=31	=31
0r	0r	0r	0r	0r	2g	4a]	2b-
.	.	.	.	.	.	4g	.
.	.	.	.	.	2e	1g	2g
.	.	.	.	.	1d	.	1a
.	.	.	.	.	.	2f#	.
=32	=32	=32	=32	=32	=32	=32	=32
0r	0r	0r	0r	2r	2e	1g	2g
.	.	.	.	2.c	1e	.	1g
.	.	.	.	.	.	2.cc	.
.	.	.	.	4B-	.	.	.
.	.	.	.	4A	2e	.	2a
.	.	.	.	4G	.	4b-	.
=33	=33	=33	=33	=33	=33	=33	=33
0r	0r	0r	0r	2F	2f	2a	2.cc
.	.	.	.	2c	2.e	2g	.
.	.	.	.	.	.	.	4b-
.	.	.	.	2d	.	2f	2a
.	.	.	.	.	4d	.	.
.	.	.	.	2B-	[2d	2d	2g
=34	=34	=34	=34	=34	=34	=34	=34
0r	1r	2r	0r	1A	2d]	1e	1a
.	.	2.a	.	.	2c#	.	.
.	2r	.	.	[1D	[1d	2.d	2.f
.	.	4g	.	.	.	.	.
.	[2a	4f	.	.	.	.	.
.	.	4e	.	.	.	4e	4g
=35	=35	=35	=35	=35	=35	=35	=35
2r	4a]	1d	1r	1D]	1d]	1f	1a
.	4g	.	.	.	.	.	.
2.d	4f	.	.	.	.	.	.
.	4e	.	.	.	.	.	.
.	1d	1f	2r	1r	1r	1r	1r
4c	.	.	.	.	.	.	.
4B-	.	.	[2dd	.	.	.	.
4A	.	.	.	.	.	.	.
=36	=36	=36	=36	=36	=36	=36	=36
2G	1d	2.g	4dd]	0r	0r	0r	0r
.	.	.	4cc	.	.	.	.
2B-	.	.	4b-	.	.	.	.
.	.	4f	4a	.	.	.	.
2c	2e	2e	2g	.	.	.	.
2G	2g	2d	2b-	.	.	.	.
=37	=37	=37	=37	=37	=37	=37	=37
2A	4f	2c	2cc	0r	0r	0r	0r
.	4e	.	.	.	.	.	.
1B-	4d	4B-	1dd	.	.	.	.
.	4c	4c	.	.	.	.	.
.	2B-	4d	.	.	.	.	.
.	.	4e	.	.	.	.	.
2A	2c	4f	[2cc	.	.	.	.
.	.	8e	.	.	.	.	.
.	.	8f	.	.	.	.	.
=38	=38	=38	=38	=38	=38	=38	=38
1G	1d	1g	2cc]	0r	1r	2r	1r
.	.	.	2b	.	.	2.g	.
[1C	[1c	[1e	[1cc	.	2.g	.	2r
.	.	.	.	.	.	4f	.
.	.	.	.	.	.	4e	[2gg
.	.	.	.	.	4f	4d	.
=39	=39	=39	=39	=39	=39	=39	=39
1C]	1c]	1e]	1cc]	2r	4e	2c	4gg]
.	.	.	.	.	4d	.	4ff
.	.	.	.	2.c	4c	2g	4ee
.	.	.	.	.	4B-	.	4dd
1r	1r	1r	1r	.	2A	[1a	2cc
.	.	.	.	4B-	.	.	.
.	.	.	.	4A	2c	.	2ee
.	.	.	.	4G	.	.	.
=40	=40	=40	=40	=40	=40	=40	=40
0r	0r	0r	0r	2F	2d	2a]	2.ff
.	.	.	.	2A	2c	2cc	.
.	.	.	.	.	.	.	4ee
.	.	.	.	2B-	2.f	2b-	2dd
.	.	.	.	2F	.	[2a	[2cc
.	.	.	.	.	4e	.	.
=41	=41	=41	=41	=41	=41	=41	=41
0r	1r	1r	0r	1G	0d	4a]	4cc]
.	.	.	.	.	.	4g	4b-
.	.	.	.	.	.	1g	2b-
.	2r	2.d	.	1D	.	.	1a
.	[2d	.	.	.	.	2f#	.
.	.	4c	.	.	.	.	.
=42	=42	=42	=42	=42	=42	=42	=42
2r	4d]	4B-	2.dd	0G	1d	[0g	1g
.	4c	4A	.	.	.	.	.
2.G	4B-	2G	.	.	.	.	.
.	4A	.	4cc	.	.	.	.
.	2G	2d	4b-	.	2r	.	1r
4F	.	.	4a	.	.	.	.
4E	2G	[2e	[2g	.	[2g	.	.
4D	.	.	.	.	.	.	.
=43	=43	=43	=43	=43	=43	=43	=43
1C	2.c	4e]	2g]	2r	4g]	1g]	2.gg
.	.	4f	.	.	4f	.	.
.	.	1g	2g	2.c	4e	.	.
.	4d	.	.	.	4d	.	4ff
2C	2e	.	2.cc	.	2c	2r	4ee
.	.	.	.	4B-	.	.	4dd
[2F	2f	2a	.	4A	2c	[2a	2cc
.	.	.	4b-	4G	.	.	.
=44	=44	=44	=44	=44	=44	=44	=44
4F]	1f	1a	4a	2F	2.f	2a]	2cc
4E	.	.	4g	.	.	.	.
4D	.	.	2f	2F	.	2a	2.ff
4C	.	.	.	.	4e	.	.
2BB-	1f	[1b-	2ff	[1B-	4d	1dd	.
.	.	.	.	.	4c	.	4ee
2BB-	.	.	4ff	.	2B-	.	4dd
.	.	.	4ee	.	.	.	4cc
=45	=45	=45	=45	=45	=45	=45	=45
1.B-	2r	1b-]	4dd	2B-]	0d	1dd	4b-
.	.	.	4cc	.	.	.	4cc
.	2d	.	2.b-	2G	.	.	1dd
.	2d	1dd	.	2.B-	.	2r	.
.	.	.	4cc	.	.	.	.
2G	[2B-	.	[2dd	.	.	[2b-	2dd
.	.	.	.	4A	.	.	.
=46	=46	=46	=46	=46	=46	=46	=46
2.B-	4B-]	1d	2dd]	1G	1d	4b-]	1b-
.	4c	.	.	.	.	4a	.
.	2.d	.	2dd	.	.	2g	.
4c	.	.	.	.	.	.	.
1d	.	2.d	1ff	1D	1d	2f	1a
.	4e	.	.	.	.	.	.
.	[2f	.	.	.	.	[2a	.
.	.	4e	.	.	.	.	.
=47	=47	=47	=47	=47	=47	=47	=47
1D	2f]	4f	2dd	2.d	2r	4a]	1ff
.	.	4g	.	.	.	4a	.
.	2F	2a	1dd	.	2d	2f	.
.	.	.	.	4d	.	.	.
1G	2.B-	1g	.	2B-	2d	2g	2dd
.	.	.	2b-	2G	[2d	[2g	[2dd
.	8A	.	.	.	.	.	.
.	8B-	.	.	.	.	.	.
=48	=48	=48	=48	=48	=48	=48	=48
0D	0A	1a	1dd	0d	4d]	2g]	2dd]
.	.	.	.	.	4e	.	.
.	.	.	.	.	4f#	4f#	2a
.	.	.	.	.	4g	4e	.
.	.	1d	1a	.	2a	1f#	1dd
.	.	.	.	.	[2d	.	.
=49	=49	=49	=49	=49	=49	=49	=49
[0G	[0G	[0d	[0b	[0G	4d]	[0g	[0dd
.	.	.	.	.	4c	.	.
.	.	.	.	.	4B	.	.
.	.	.	.	.	4A	.	.
.	.	.	.	.	1B	.	.
=50	=50	=50	=50	=50	=50	=50	=50
0G]	0G]	0d]	0b]	0G]	0B	0g]	0dd]
==	==	==	==	==	==	==	==
*-	*-	*-	*-	*-	*-	*-	*-
!!!CDT: 1525/^1526/-1594/2/2
!!!OCY: Italia
!!!AGN: Mass (Parody)
!!!AST: renaissance, vocal
!!!ASW: Motet (Palestrina)
!!!PWK: Masses, Book 8vce
!!!RNB: Cadence finals: D
!!!YOR: Le Opere Complete, v. 30, p. 110
!!!YOO: Rome, Italy: Fratelli Scalera
!!!END: 1992//
!!!EED: John Miller
!!!YEC: Copyright 2000, John Miller
!!!YEN: United States of America
!!!YEM: Rights to all derivative electronic formats reserved.
!!!YEM: Refer to licensing agreement for further details.
!!!YEM: This file must be accompanied by the licensing agreement.
!!!YEM: A copy of the licensing agreement may be found at http://www.music-cog.ohio-state.edu/HumdrumDatabases/Palestrina/license.txt
!!!EMD: converted to Humdrum by Bret Aarden
